X: 2110
T: Within a Mile o' Edinburgh Toon
P: Within a Mile o' Edinburgh Toon
C:Traditional
R:Strathspey (8x32)
B:RSCDS 21-10
Z:Anselm Lingnau <anselm@strathspey.org>
M:C
L:1/8
K:A
c>d|"A"e<c B>c "D"A2 c>A|"D"F<A "A"E>C E2 A>B|\
    "A"c<e "D"f>a "A"e<c "E7"BA|"A"[c2E2] "E7"[B2E2] z2 c>d|
    "A"e<c B>c "D"A2 c>A|"D"F<A "A"E>C E2 A>B|\
    "A"c<e "D"f>a "A"e<c "E7"B>c|"A"[A6E6] z2||
    "A"A>B c>d ec a2|A>B c>d ec a>A|\
    A>B A>F ECE>A|c>A c<e "D"f2 ag/f/|
    "A"e<c c<A "D"F<A "A"E<A|c<e "E"B>c "D"A2 ag/f/|\
    "A"e<c c<A "D"F<A "A"E>A|c<e "E7"B>c "A"[A2C2]|]
%%center Book21/2110-Within_a_Mile_o_Edinburgh_Toon-AL.abc

%%sep 1 1 500
%%sep 1 1 500

